icons/circle-star-outline.svg

<svg xmlns="http://www.w3.org/2000/svg" width="24" height="24" viewBox="0 0 24 24">
  <path d="M12,1 C18.0751322,1 23,5.92486775 23,12 C23,18.0751322 18.0751322,23 12,23 C5.92486775,23 1,18.0751322 1,12 C1,5.92486775 5.92486775,1 12,1 Z M12,3 C7.02943725,3 3,7.02943725 3,12 C3,16.9705627 7.02943725,21 12,21 C16.9705627,21 21,16.9705627 21,12 C21,7.02943725 16.9705627,3 12,3 Z M12.4425657,6.36281539 C12.6397783,6.46014562 12.7994058,6.61977315 12.8967361,6.81698575 L14.0572484,9.16844052 L16.6522328,9.54551383 C17.1987777,9.62493144 17.5774591,10.1323743 17.4980415,10.6789192 C17.466417,10.8965562 17.3639298,11.0976986 17.2064462,11.2512072 L15.3286978,13.0815595 L15.7719741,15.6660584 C15.8653351,16.2103948 15.4997472,16.7273507 14.9554108,16.8207118 C14.7386532,16.8578886 14.5156851,16.8225739 14.3210246,16.7202349 L12,15.5 L9.67897539,16.7202349 C9.1901308,16.9772357 8.58550365,16.7892891 8.32850284,16.3004446 C8.22616377,16.1057841 8.19084909,15.882816 8.22802594,15.6660584 L8.67130219,13.0815595 L6.79355384,11.2512072 C6.39807026,10.865706 6.38997795,10.2325927 6.77547916,9.83710915 C6.92898777,9.67962551 7.13013018,9.57713834 7.34776721,9.54551383 L9.94275162,9.16844052 L11.1032639,6.81698575 C11.3476862,6.32173209 11.9473121,6.11839309 12.4425657,6.36281539 Z"/>
</svg>

<svg xmlns="http://www.w3.org/2000/svg" viewBox="0 0 24 24">
  <path d="M12 1a11 11 0 1 1 0 22 11 11 0 0 1 0-22zm0 2a9 9 0 1 0 0 18 9 9 0 0 0 0-18zm.44 3.36c.2.1.36.26.46.46l1.16 2.35 2.6.38a1 1 0 0 1 .55 1.7l-1.88 1.83.44 2.59a1 1 0 0 1-1.45 1.05L12 15.5l-2.32 1.22a1 1 0 0 1-1.45-1.05l.44-2.59-1.88-1.83a1 1 0 0 1 .56-1.7l2.6-.38 1.15-2.35a1 1 0 0 1 1.34-.46z"/>
</svg>
